X: 595
%
U:~=!turn!
T: Struan Robertson's Rant
C:
O:Scotland
B:Keith Norman MacDonald : "The Skye collection of the best reels & strathspeys extant" : 1887
Z:Ralph Palmer
R:Strathspey
M:C
L:1/8
K:E aeolian
e | E/E/E {/A}G>A T(B>A)B<d | D/D/D T(F>E) (D/E/)(F/G/) A<F | E/E/E {/F}G>A T(B>A)B<e | {/^c}d>BA>F E/E/E TE ::
g | e>f{/f}g>e b>e{/g}g>e | f<dd>f a/g/f/e/ {/^c}d>f | e>f{/f}g>e b>e{/f}g>e | {/^c}d>BA>F E/E/E E ::


